X:1
T:James Gibb editions
T:O Lord my God - Wesley
T:#
%%score [ 1 2 3 4 ]
L:1/8
Q:1/4=120
M:4/4
K:F
V:1 treble nm="Soprano"
V:2 treble nm="Alto"
V:3 treble-8 nm="Tenor"
V:4 bass nm="Bass"
V:1
"^King Solomon's prayer""^larghetto""^Samuel Sebastian Wesley\n(1810-76)""^O Lord my God" A4 A2 A2 | %1
w: O Lord my|
 B4 z2 A2 | G4 d4 | c4 z4 | c4 B2 A2 | G4 A4 | B4 (A2 G2) |[M:4/4] F4 E2 z2 | c4"^cresc." c2 c2 | %9
w: God, O|Lord my|God,|hear thou the|prayer thy|ser- vant *|pray- eth,|have thou res-|
 c4 c4 | f6 f2 | e4 =B4 | c4 (e2 d2) | c4 =B4 | (!>!=B8 | c4) z4 | A4 A2 A2 | B6 A2 | G4 d4 | %19
w: pect un-|to his|prayer, res-|pect un\- *|to his|prayer.||Hear thou in|heaven, thy|dwell- ing|
 c4 z4 | c4 B2 A2 | d4 c4 | (f2 B2 e2) d2 | (d4 c4) | c4 B2 A2 |!<(! A4 G4!<)! | %26
w: place,|and when thou|hear- est,|Lord, * * for-|give, *|hear thou in|heaven thy|
!>(! (_e4 d2) c2!>)! | (c4 B4) |!mf! e4 f2 d2 | c4 c4 | (e2 d2) (c2 B2) |"^dim." (B4 A4) | %32
w: dwell\- * ing|place, *|and when thou|hear- est,|Lord, * for\- *|give, *|
!p! A4 A2 A2 | d6 F2 | F4 G4 | (G4 A2) z A |!<(! (B8!<)! |!>(! A4) z2!>)! A2 |!>(! (d8 | %39
w: And when thou|hear- est,|Lord, for-|give, * for-|give,|* for-|give,|
 c4)!>)! z4 |!mf! f4 f2 f2 | (f2 B2)!p! (A2 G2) | F4 G4 | (G4 A2) A2 | (B8 | A4) z2 A2 | (d8 | %47
w: |and when thou|hear\- * est, *|Lord, for-|give, * for-|give,|* for-|give,|
 c4) z4 | f4 f2 f2 |"^cresc." (f2 d2) (a2 g2) |!f! (g2 f4) e2 | %51
w: |and when thou|hear\- * est, *|Lord, * for-|
[Q:1/4=100] (!fermata!e4 !fermata!f4) |] %52
w: give. *|
V:2
!p! F4 F2 F2 | G4 z2 F2 | E4 E4 | F4 z4 | F4 F2 F2 | D4 D4 | D4 D4 |[M:4/4] C4 C2 z2 | %8
w: O Lord my|God, O|Lord my|God,|hear thou the|prayer thy|ser- vant|pray- eth,|
 A4"^cresc." G2 G2 | F4 E4 | E4 D4 | D4 E4 | E4 A4 | G4 F4 |"^dim." (!>!F8 | E4) z4 |!p! F4 F2 F2 | %17
w: have thou res-|pect un-|to his|prayer, res-|pect un-|to his|prayer.||Hear thou in|
 G6 F2 | E4 E4 | F4 z4 | F4 F2 E2 | D4 E4 | (F4 E2) F2 | G8 | F4 ^F2 F2 |!<(! ^F4 G4!<)! | %26
w: heaven, thy|dwell- ing|place,|and when thou|hear- est,|Lord, * for-|give,|hear thou in|heaven thy|
!>(! !courtesy!=F6 F2!>)! | F8 |!mf! E4 D2 F2 | G4 C4 | B,4 (C2 D2) |"^dim." E8 |!p! _E4 E2 E2 | %33
w: dwell- ing|place,|and when thou|hear- est,|Lord, for\- *|give,|And when thou|
 D6 D2 | C4 E4 | (E4 F2) z F |!<(! (E8!<)! |!>(! F4) z2!>)! F2 |!>(! (E8 | F4)!>)! z4 | %40
w: hear- est,|Lord, for-|give, * for-|give,|* for-|give,||
!mf! F4 F2 F2 | F4!p! (E2 D2) | C4 E4 | (E4 F2) F2 | (E8 | F4) z2 A2 | (G8 | A4) z4 | F4 F2 F2 | %49
w: and when thou|hear- est, *|Lord, for-|give, * for-|give,|* for-|give,||and when thou|
"^cresc." F4 D4 |!f! C4 B,4 | !fermata!B,4 !fermata!A,4 |] %52
w: hear- est,|Lord, for-|give. *|
V:3
 c4 c2 c2 | c4 z2 c2 | c4 c4 | c4 z4 | d4 d2 c2 | B4 ^F4 | (G2 d2) (c2 B2) | %7
w: O Lord my|God, O|Lord my|God,|hear thou the|prayer thy|ser\- * vant *|
[M:4/4][K:treble-8] A4 G2 z2 | c4"^cresc." =B2 B2 | A4 G4 | F4 (=B2 A2) | ^G4 (=B2 d2) | %12
w: pray- eth,|have thou res-|pect un-|to his *|prayer, res\- *|
 c4 (c2 d2) | e4 d4 |"^dim." (!>!d8 | c4) z4 | c4 c2 c2 | c6 c2 | c4 c4 | c4 z4 | d4 d2 c2 | %21
w: pect un\- *|to his|prayer.||Hear thou in|heaven, thy|dwell- ing|place,|and when thou|
 B4 A4 | A4 B4 | B8 | (A2 c2) _e2 e2 |!<(! d4 d4!<)! |!>(! A6 A2!>)! | (A4 B4) |!mf! B4 B2 B2 | %29
w: hear- est,|Lord, for-|give,|hear * thou in|heaven thy|dwell- ing|place, *|and when thou|
 B4 A4 | A4 G4 |"^dim." G8 |!p! ^F4 F2 F2 | (^F4 G2) ^G2 | A4 B4 | (B4 A2) z c |!<(! ((G8!<)! | %37
w: hear- est,|Lord, for-|give,|And when thou|hear\- * est,|Lord, for-|give, * for-|give,|
!>(! c4)) z2!>)! c2 |!>(! c8- | c4!>)! z4 |!mf! _e4 e2 e2 | d4!p! (c2 B2) | A4 B4 | (B4 A2) c2 | %44
w: * for-|give,||and when thou|hear- est, *|Lord, for-|give, * for-|
 c8- | c4 z2 c2 | (e8 | f4) z4 | A4 A2 A2 |"^cresc." B4 B4 |!f! A4 G4 | %51
w: give,|* for-|give,||and when thou|hear- est,|Lord, for-|
 (!fermata!G4 !fermata!F4) |] %52
w: give. *|
V:4
 F,4 F,2 F,2 | E,4 z2 F,2 | B,4 B,4 | A,4 z4 | z8 | D,4 D,2 D,2 | G,,2 G,,2 B,,2 B,,2 | %7
w: O Lord my|God, O|Lord my|God,||hear thou the|prayer thy ser- vant|
[M:4/4] C,4 C,2 z2 | z8 |"^cresc." C,8 | D,6 D,2 | E,4 ^G,4 | A,4 ^F,4 | G,4 G,4 |"^dim." (!>!G,8 | %15
w: pray- eth,||have|thou res-|pect, res-|pect un-|to his|prayer.|
 C,4) z4 | F,4 F,2 F,2 | E,6 F,2 | B,4 B,4 | A,4 z4 | z8 | B,,4 C,2 C,2 | D,4 G,2 F,2 | E,8 | %24
w: |Hear thou in|heaven, thy|dwell- ing|place,||and when thou|hear- est, for-|give,|
 F,4 A,,2 A,,2 |!<(! B,,4 B,,4!<)! |!>(! C,6 C,2!>)! | D,8 |!mf! G,4 F,2 F,2 | E,4 F,4 | %30
w: hear thou in|heaven thy|dwell- ing|place,|and when thou|hear- est,|
 D,4 (E,2 D,2) |"^dim." ^C,8 |!p! !courtesy!=C,4 C,2 C,2 | =B,,6 B,,2 | C,4 C,4 | (C,4 F,2) z F, | %36
w: Lord, for\- *|give,|And when thou|hear- est,|Lord, for-|give, * for-|
!<(! (G,8!<)! |!>(! F,4) z2!>)! F,2 |!>(! (B,8 | A,4)!>)! z4 | z8 | z4!p! B,,4 | C,4 C,4 | %43
w: give,|* for-|give,|||O|Lord, for-|
 (C,4 F,2) F,2 | (G,8 | F,4) z2 F,2 | (B,8 | A,4) z4 | _E,4 E,2 E,2 |"^cresc." D,4 B,,4 | %50
w: give, * for-|give,|* for-|give,||and when thou|hear- est,|
!f! C,4 C,4 | !fermata!F,,8 |] %52
w: Lord, for-|give.|

